svgs/sharp-light/waveform-lines.svg

<svg xmlns="http://www.w3.org/2000/svg" viewBox="0 0 640 512"><!--! Font Awesome Pro 6.6.0 by @fontawesome - https://fontawesome.com License - https://fontawesome.com/license (Commercial License) Copyright 2024 Fonticons, Inc. --><path d="M336 0l0 16 0 480 0 16-32 0 0-16 0-480 0-16 32 0zM528 64l0 16 0 352 0 16-32 0 0-16 0-352 0-16 32 0zM240 96l0 16 0 288 0 16-32 0 0-16 0-288 0-16 32 0zm192 32l0 16 0 224 0 16-32 0 0-16 0-224 0-16 32 0zM144 192l0 16 0 96 0 16-32 0 0-16 0-96 0-16 32 0zM48 224l0 16 0 32 0 16-32 0 0-16 0-32 0-16 32 0zm576 0l0 16 0 32 0 16-32 0 0-16 0-32 0-16 32 0z"/></svg>

<svg xmlns="http://www.w3.org/2000/svg" viewBox="0 0 640 512"><!--! Font Awesome Pro 6.5.2 by @fontawesome - https://fontawesome.com License - https://fontawesome.com/license (Commercial License) Copyright 2024 Fonticons, Inc. --><path d="M336 0V16 496v16H304V496 16 0h32zM528 64V80 432v16H496V432 80 64h32zM240 96v16V400v16H208V400 112 96h32zm192 32v16V368v16H400V368 144 128h32zM144 192v16 96 16H112V304 208 192h32zM48 224v16 32 16H16V272 240 224H48zm576 0v16 32 16H592V272 240 224h32z"/></svg>
